static/icons/stacker.svg

<svg width="91" height="56" fill="none" xmlns="http://www.w3.org/2000/svg"><path d="M21.408 55.864c3.408 0 6.408-.624 9-1.872 2.64-1.248 4.68-2.952 6.12-5.112 1.488-2.208 2.232-4.752 2.232-7.632 0-3.552-1.08-6.504-3.24-8.856-2.16-2.352-5.352-4.152-9.576-5.4l-8.496-2.52c-2.88-.864-5.016-2.16-6.408-3.888-1.392-1.776-2.088-3.768-2.088-5.976 0-2.736.96-4.896 2.88-6.48 1.92-1.632 4.416-2.448 7.488-2.448 3.264 0 6.096.816 8.496 2.448 2.448 1.632 4.248 4.032 5.4 7.2l5.04-2.016c-.768-2.352-2.04-4.488-3.816-6.408-1.776-1.92-3.96-3.456-6.552-4.608-2.544-1.2-5.424-1.8-8.64-1.8-3.072 0-5.832.624-8.28 1.872-2.4 1.248-4.296 2.976-5.688 5.184-1.392 2.16-2.088 4.656-2.088 7.488 0 3.312 1.008 6.264 3.024 8.856 2.064 2.592 4.992 4.44 8.784 5.544l9.648 2.88c2.688.768 4.752 1.872 6.192 3.312 1.44 1.44 2.16 3.48 2.16 6.12 0 2.688-1.08 4.848-3.24 6.48-2.112 1.632-4.896 2.448-8.352 2.448-3.648 0-6.792-.936-9.432-2.808-2.64-1.92-4.584-4.704-5.832-8.352L.96 41.464c.816 2.64 2.184 5.064 4.104 7.272 1.92 2.16 4.272 3.888 7.056 5.184 2.784 1.296 5.88 1.944 9.288 1.944ZM49.883 55h5.76V12.376L85.163 55h5.04V1.36h-5.76v42.336L54.923 1.36h-5.04V55Z" fill="#FFD93F"/></svg>

<svg width="91" height="56" viewBox="0 0 91 56" fill="none" xmlns="http://www.w3.org/2000/svg">
<path d="M21.408 55.864C24.816 55.864 27.816 55.24 30.408 53.992C33.048 52.744 35.088 51.04 36.528 48.88C38.016 46.672 38.76 44.128 38.76 41.248C38.76 37.696 37.68 34.744 35.52 32.392C33.36 30.04 30.168 28.24 25.944 26.992L17.448 24.472C14.568 23.608 12.432 22.312 11.04 20.584C9.648 18.808 8.952 16.816 8.952 14.608C8.952 11.872 9.912 9.712 11.832 8.128C13.752 6.496 16.248 5.68 19.32 5.68C22.584 5.68 25.416 6.496 27.816 8.128C30.264 9.76 32.064 12.16 33.216 15.328L38.256 13.312C37.488 10.96 36.216 8.824 34.44 6.904C32.664 4.984 30.48 3.448 27.888 2.296C25.344 1.096 22.464 0.495998 19.248 0.495998C16.176 0.495998 13.416 1.12 10.968 2.368C8.568 3.616 6.672 5.344 5.28 7.552C3.888 9.712 3.192 12.208 3.192 15.04C3.192 18.352 4.2 21.304 6.216 23.896C8.28 26.488 11.208 28.336 15 29.44L24.648 32.32C27.336 33.088 29.4 34.192 30.84 35.632C32.28 37.072 33 39.112 33 41.752C33 44.44 31.92 46.6 29.76 48.232C27.648 49.864 24.864 50.68 21.408 50.68C17.76 50.68 14.616 49.744 11.976 47.872C9.336 45.952 7.392 43.168 6.144 39.52L0.96 41.464C1.776 44.104 3.144 46.528 5.064 48.736C6.984 50.896 9.336 52.624 12.12 53.92C14.904 55.216 18 55.864 21.408 55.864ZM49.8829 55H55.6429V12.376L85.1629 55H90.2029V1.36H84.4429V43.696L54.9229 1.36H49.8829V55Z" fill="#FFD93F"/>
</svg>
